Origami/32x32/apps/mailspring.svg

<svg width="32" height="32" version="1.1" viewBox="0 0 32 32" xmlns="http://www.w3.org/2000/svg">
 <path d="M 16,3 A 14,14 0 0 0 2,17 14,14 0 0 0 16,31 14,14 0 0 0 30,17 14,14 0 0 0 16,3 Z" style="opacity:.2"/>
 <path d="M 16,2 A 14,14 0 0 0 2,16 14,14 0 0 0 16,30 14,14 0 0 0 30,16 14,14 0 0 0 16,2 Z" style="fill:#23b7fb"/>
 <path d="m8 10.99999 8 8 8-8h-16zm16 1.51953-5.24023 5.24024 5.24023 5.24023v-10.48047zm-16 1e-3v10.47949l5.24024-5.24025-5.24024-5.23926zm5.94727 5.94627-4.5332 4.5332h13.17187l-4.5332-4.5332-0.91309 0.91308c-0.5067 0.50632-1.77259 0.50632-2.27929 0l-0.91309-0.91308z" style="opacity:.2"/>
 <path d="m8 9.99999 8 8 8-8h-16zm16 1.51953-5.24023 5.24024 5.24023 5.24023v-10.48047zm-16 1e-3v10.47949l5.24024-5.24025-5.24024-5.23926zm5.94727 5.94627-4.5332 4.5332h13.17187l-4.5332-4.5332-0.91309 0.91308c-0.5067 0.50632-1.77259 0.50632-2.27929 0l-0.91309-0.91308z" style="fill:#a7ffe8"/>
 <path d="M 16 2 A 14 14 0 0 0 2 16 A 14 14 0 0 0 2.0214844 16.414062 A 14 14 0 0 1 16 3 A 14 14 0 0 1 29.978516 16.585938 A 14 14 0 0 0 30 16 A 14 14 0 0 0 16 2 z" style="fill:#ffffff;opacity:.2"/>
</svg>

<svg xmlns="http://www.w3.org/2000/svg" width="32" height="32" version="1.1" viewBox="0 0 32 32">
 <path style="opacity:0.2" d="M 16,3 A 14,14 0 0 0 2,17 14,14 0 0 0 16,31 14,14 0 0 0 30,17 14,14 0 0 0 16,3 Z"/>
 <path style="fill:#23b7fb" d="M 16,2 A 14,14 0 0 0 2,16 14,14 0 0 0 16,30 14,14 0 0 0 30,16 14,14 0 0 0 16,2 Z"/>
 <path style="opacity:0.2" d="m 8,10.99999 8,8 8,-8 -16,0 z M 24,12.51952 18.75977,17.75976 24,22.99999 24,12.51952 Z M 8,12.52052 8,23.00001 13.24024,17.75976 8,12.5205 Z m 5.94727,5.94627 -4.5332,4.5332 13.17187,0 -4.5332,-4.5332 -0.91309,0.91308 c -0.5067,0.50632 -1.77259,0.50632 -2.27929,0 l -0.91309,-0.91308 z"/>
 <path style="fill:#a7ffe8" d="m 8,9.99999 8,8 8,-8 -16,0 z M 24,11.51952 18.75977,16.75976 24,21.99999 24,11.51952 Z M 8,11.52052 8,22.00001 13.24024,16.75976 8,11.5205 Z m 5.94727,5.94627 -4.5332,4.5332 13.17187,0 -4.5332,-4.5332 -0.91309,0.91308 c -0.5067,0.50632 -1.77259,0.50632 -2.27929,0 l -0.91309,-0.91308 z"/>
 <path style="fill:#ffffff;opacity:0.2" d="M 16 2 A 14 14 0 0 0 2 16 A 14 14 0 0 0 2.0214844 16.414062 A 14 14 0 0 1 16 3 A 14 14 0 0 1 29.978516 16.585938 A 14 14 0 0 0 30 16 A 14 14 0 0 0 16 2 z"/>
</svg>
